X:1
T:Unser lieben Frauen Traum
T:aus "Acht geistliche Gesänge" Opus 138, Nr. 4
T: Max Reger (1873 - 1916)
T:Set by C. Höcker - Sep. 2018 - CC0
T:Set by C. Höcker - Sep. 2018 - CC0
T:Set by C. Höcker - Sep. 2018 - CC0
Z:Set by C. Höcker - Sep. 2018 - CC0
%%score [ ( 1 2 ) 3 4 ( 5 6 ) ]
L:1/8
Q:1/4=106
M:3/4
K:F
V:1 treble nm="Soprano"
V:2 treble 
V:3 treble nm="Alto"
V:4 treble-8 nm="Tenore"
V:5 bass nm="Basso"
V:6 bass 
V:1
!p!"^Zart bewegt"!<(! F2 | (A3 G)!<)!!mp! A2 | (c2 d2) A2 |!>(! G6 | F4!>)!!pp! c2 | (d3 c) B2 | %6
w: ~Und|un~- * ser|lie~- * ben|Frau-|en, der|trau~- * met,|
 (c2 A2) B2 | (A3 G)!>(! ^F2!>)! |!pp! G4!mp!!<(! G2 | (F2 A2) B2 | (c2 d2) =B2!<)! | %11
w: trau~- * met,|ihr~ _ ein|Traum: wie|un~- * ter|ih~- * rem|
!mf! (e4!>(! d2) |!mp! c4!>)!!<(! c2 | =B4!<)!!>(! A2 | G4!>)!!p! A2 | d3!>(! !courtesy!_B G2!>)! | %16
w: Her~- *|zen ge-|wach- sen|wär, ge-|wach- sen ein|
!pp! F4!p!!<(! F2 | (A3 G) A2!<)! |!mp! (c2 d2) A2 | G4!>(! G2!>)! |!p! F4!<(! c2 | (d3!<)! c) B2 | %22
w: Baum. 2.~Und|wie _ der|Baum _ ein|Schat- ten|gäb wohl|ü~- * ber|
 (c2 A2) B2 |!>(! (A3 G) ^F2!>)! |!p! G4!mf! G2 |!<(! (F2 A2) B2 | (c2 d2) =B2!<)! |!f! (e4 d2) | %28
w: al~- * le,|al~- * le|Land: Herr|Je~- * sus|Christ, _ der|Hei~- *|
!>(! c4 c2!>)! |!mf! =B4 A2 | G4 A2 |!>(! (d3 !courtesy!_B) G2!>)! |!p! F6 ||[M:4/4]!f! G4 A2 F2 | %34
w: land, al-|so ist|er, ist|er _ ge-|nannt.|3.~Herr Je- sus|
 !courtesy!=E4 z2!<(! A2 | d4 d4!<)! |!ff! e4 ^c2 c2 | d4!>(! d4 | G4!>)! z2!f!!<(! G2 | %39
w: Christ, der|Hei- land,|ist un- ser|Heil und|Trost, mit|
 B4 c4!<)! |"^>"!ff! F4 G4 |!>(! A4!mf! B2!>)!!<(! c2 | d4 d4!<)! |!ff! _e4!>(! e4!>)! | %44
w: sei- ner|bit- tern|Mar- ter hat|er uns|all er-|
!mf! !fermata!d4!mp!"^ritardando" !courtesy!=e4 | c4!>(! d4 | (B2 A2) G4!>)! |!pp! !fermata!F8 |] %48
w: lost, hat|er uns|all _ er-|lost.|
V:2
 x2 | x6 | x6 | x6 | x6 | x6 | x6 | x6 | x6 | x6 | x6 | x6 | x6 | x6 | x6 | x6 | x6 | x6 | x6 | %19
 x6 | x6 | x6 | x6 | x6 | x6 | x6 | x6 | x6 | x6 | x6 | x6 | x6 | x6 ||[M:4/4] _E4 E2 D2 | %34
 E4 x2 A2 | A4 B4 | B4 F2 A2 | A4 (B2 A2) | G4 x2 G2 | G4 _E4 | _E4 (D2 =E2) | ^F4 G2 G2 | A4 B4 | %43
 B4 A4 | D4 c4 | A4 A4 | (B2 F2) (D2 E2) | x8 |] %48
V:3
!p!!<(! C2 | (F3 E)!<)!!mp! F2 | F4 F2 |!>(! (F4 E2) | D4!>)!!pp! G2 | D4 G2 | (G2 F2) F2 | %7
w: ~Und|un~- * ser|lie- ben|Frau~- *|en, der|trau- met,|trau~- * met,|
 _E4!>(! D2!>)! |!pp! D4!mp!!<(! !courtesy!=E2 | (D2 E2) G2 | (G2 A2) G2!<)! |!mf! (G3 A!>(! B2) | %12
w: ihr ein|Traum: wie|un~- * ter|ih- * rem|Her~- * *|
!mp! A4!>)!!<(! A2 | (G2 F2)!<)!!>(! F2 | D4!>)!!p! F2 | F3!>(! F E2!>)! |!pp! C4!p!!<(! C2 | %17
w: zen ge-|wach~- * sen|wär, ge-|wach- sen ein|Baum. 2.~Und|
 (F3 E) F2!<)! |!mp! F4 F2 | F4!>(! E2!>)! |!p! D4!<(! G2!<)! | D4 G2 | (G2 F2) F2 | %23
w: wie _ der|Baum ein|Schat- ten|gäb wohl|ü- ber|al~- * le,|
!>(! _E4 D2!>)! |!p! D4!mf! !courtesy!=E2 |!<(! (D2 E2) G2 | (G2 A2) G2!<)! | %27
w: al- le|Land: Herr|Je~- * sus|Christ, _ der|
!f! (G3 A !courtesy!_B2) |!>(! A4 A2!>)! |!mf! (G2 F2) F2 | D4 F2 |!>(! F4 E2!>)! |!p! C6 || %33
w: Hei~- * *|land, al-|so _ ist|er, ist|er ge-|nannt.|
[M:4/4]!f! B,4 C2 F2 | ^C4 z2!<(! E2 | D4 F4!<)! |!ff! E4 A2 G2 | F4!>(! (G2 F2) | %38
w: 3.~Herr Je- sus|Christ, der|Hei- land,|ist un- ser|Heil und _|
 E4!>)! z2!f!!<(! D2 | B4 A4!<)! |"^>"!ff! F4 (B,2 G2) |!>(! ^F4!mf! D2!>)!!<(! C2 | %42
w: Trost, mit|sei- ner|bit- tern _|Mar- ter hat|
 !courtesy!=F4 F4!<)! |!ff! _E4!>(! c4!>)! |!mf! !fermata!=B4!mp! G4 | G4!>(! F4 | F6 E2!>)! | %47
w: er uns|all er-|lost, hat|er uns|all er-|
!pp! !fermata!C8 |] %48
w: lost.|
V:4
!p!!<(! A2 | (A3 B)!<)!!mp! A2 | (f2 d2) d2 |!>(! (G3 A B2) | A4!>)!!pp! c2 | A4 d2 | c4 B2 | %7
w: ~Und|un~- * ser|lie~- * ben|Frau~- * *|en, der|trau- met,|trau- met,|
 c4!>(! A2!>)! |!pp! B4!mp!!<(! c2 | (A2 c2) d2 | (c2 f2) d2!<)! |!mf! (e4!>(! g2) | %12
w: ihr ein|Traum: wie|un~- * ter|ih~- * rem|Her~- *|
!mp! e4!>)!!<(! d2 | d4!<)!!>(! c2 | =B4!>)!!p! d2 | d3!>(! d !courtesy!_B2!>)! | %16
w: zen ge-|wach- sen|wär, ge-|wach- sen ein|
!pp! A4!p!!<(! A2 | (A3 B) A2!<)! |!mp! (f2 d2) d2 | (G3 A)!>(! B2!>)! |!p! A4!<(! c2 | A4!<)! d2 | %22
w: Baum. 2.~Und|wie _ der|Baum _ ein|Schat~- * ten|gäb wohl|ü- ber|
 c4 B2 |!>(! c4 A2!>)! |!p! B4!mf! c2 |!<(! (A2 c2) d2 | (c2 f2) d2!<)! |!f! (e4 g2) | %28
w: al- le,|al- le|Land: Herr|Je~- * sus|Christ, _ der|Hei~- *|
!>(! e4 d2!>)! |!mf! d4 c2 | =B4 d2 |!>(! d4 !courtesy!_B2!>)! |!p! A6 ||[M:4/4]!f! G4 cA d2 | %34
w: land, al-|so ist|er, ist|er ge-|nannt.|3.~Herr Je~- * sus|
 ^c4 z2!<(! c2 | A4 d4!<)! |!ff! g4 f2 e2 | d4!>(! d4 | e4!>)! z2!f!!<(! d2 | _e4 e4!<)! | %40
w: Christ, der|Hei- land,|ist un- ser|Heil und|Trost, mit|sei- ner|
"^>"!ff! (_e2 A2) d4 |!>(! c4!mf! d2!>)!!<(! G2 | d4 d4!<)! |!ff! g4!>(! _e4!>)! | %44
w: bit~- * tern|Mar- ter hat|er uns|all er-|
!mf! !fermata!=B4!mp!!mp! c4 | c4!>(! (f2 d2) | d6 c2!>)! |!pp! !fermata!c8 |] %48
w: lost, hat|er uns _|all er-|lost.|
V:5
!p!!<(! F,2 | D,4!<)!!mp! D,2 | (A,,2 B,,2) =B,,2 |!>(! (C,4 ^C,2) | D,4!>)!!pp! E,2 | ^F,4 G,2 | %6
w: ~Und|un- ser|lie~- * ben|Frau~- *|en, der|trau- met,|
 (_E,2 F,2) D,2 | (C,2 A,,2)!>(! D,2!>)! |!pp! G,,4!mp!!<(! C,2 | (D,2 C,2) G,2 | %10
w: trau~- * met,|ihr~ _ ein|Traum: wie|un~- * ter|
 (E,2 F,2) G,2!<)! |!mf! (C4!>(! G,2) |!mp! A,4!>)!!<(! F,2 | (G,2 D,2)!<)!!>(! F,2 | %14
w: ih~- * rem|Her~- *|zen ge-|wach~- * sen|
 G,4!>)!!p! D,2 | B,3!>(! G, C,2!>)! |!pp! F,4!p!!<(! F,2 | D,4 D,2!<)! |!mp! (A,,2 B,,2) =B,,2 | %19
w: wär, ge-|wach- sen ein|Baum. 2.~Und|wie der|Baum _ ein|
 C,4!>(! ^C,2!>)! |!p! D,4!<(! E,2 | ^F,4!<)! G,2 | (_E,2 F,2) D,2 |!>(! (C,2 A,,2) D,2!>)! | %24
w: Schat- ten|gäb wohl|ü- ber|al~- * le,|al~- * le|
!p! G,,4!mf! C,2 |!<(! (D,2 C,2) G,2 | (E,2 F,2) G,2!<)! |!f! (C4 G,2) |!>(! A,4 F,2!>)! | %29
w: Land: Herr|Je~- * sus|Christ, _ der|Hei~- *|land, al-|
!mf! (G,2 D,2) F,2 | G,4 D,2 |!>(! (B,3 G,) C,2!>)! |!p! F,6 ||[M:4/4]!f! B,4 A,2 A,2 | %34
w: so _ ist|er, ist|er _ ge-|nannt.|3.~Herr Je- sus|
 A,4 z2!<(! A,2 | F,4 F,4!<)! |!ff! B,4 A,2 A,2 | D4!>(! G,4 | G,4!>)! z2!f!!<(! B,2 | %39
w: Christ, der|Hei- land,|ist un- ser|Heil und|Trost, mit|
 G,4 A,4!<)! |"^>"!ff! A,4 B,4 |!>(! C4!mf! G,2!>)!!<(! C2 | C4 B,4!<)! |!ff! D4!>(! C4!>)! | %44
w: sei- ner|bit- tern|Mar- ter hat|er uns|all er-|
!mf! G,4!mp! G,4 | A,4!>(! A,4 | (G,2 A,2) B,4!>)! |!pp! !fermata![F,A,]8 |] %48
w: löst, hat|er uns|all _ er-|lost.|
V:6
 x2 | x6 | x6 | x6 | x6 | x6 | x6 | x6 | x6 | x6 | x6 | x6 | x6 | x6 | x6 | x6 | x6 | x6 | x6 | %19
 x6 | x6 | x6 | x6 | x6 | x6 | x6 | x6 | x6 | x6 | x6 | x6 | x6 | x6 ||[M:4/4] _E,4 C,2 D,2 | %34
 A,,4 x2 A,2 | F,4 B,,4 | G,,4 A,,2 A,,2 | B,,4 G,,4 | C,4 x2 G,2 | _E,4 C,4 | D,4 B,,4 | %41
 A,,4 G,,2 _E,2 | D,4 G,4 | C,4 ^F,4 | !fermata!G,4 !courtesy!=E,4 | F,4 D,4 | G,,4 C,4 | F,,8 |] %48

